X:1
T:Nos autem gloriari - Anerio
T:#
%%score [ 1 2 3 4 ]
L:1/8
Q:1/4=200
M:none
K:Ab
V:1 treble nm="Soprano" snm="S"
V:2 treble nm="Alto" snm="A"
V:3 treble-8 nm="Tenor" snm="T"
V:4 bass nm="Bass" snm="B"
V:1
"^Nos autem gloriari""^Felice Anerio\n(c. 1560-1614)" c16 | d16 | c16 ||[M:3/1][Q:1/4=400] A16 A8 | %4
w: Nos|au-|tem|glo- ri-|
 A16 B8 | c16 e8 | c16 B8 ||[Q:1/4=200] d16 | c16 | =A16 | z16 | z8 c8 | c8 F8 | z4 c6 B2 B4 | %14
w: a- ri,|glo- ri-|a- ri|o-|por-|tet||in|cru- ce|Do- mi- ni|
 A4 G4 A8 | F8 B8 | A8 z8 | A8 c4 c4 | (F2 G2 A2 B2 c2 d2 e2 c2 | d2 B2 d8 c4) | d8 z4 e4 | %21
w: no- stri Je-|su Chri-|sti:|in quo est|sa\- * * * * * * *||lus, in|
 d4 B4 (c8 | B6 A2) G4 B4- | B4 B4 z8 ||[M:3/1][Q:1/4=400] B8 c8 c8 | e16 B8 | c8 B16 | A16 z8 | %28
w: quo est sa\-|* * lus, vi\-|* ta,|et re- sur-|re- cti-|o no-|stra,|
[M:3/1][Q:1/4=400][Q:1/4=400][Q:1/4=400][Q:1/4=400] A8 =A8 B8 | c16 A8 | B8 B16 ||[Q:1/4=200] B16 | %32
w: et re- sur-|re- cti-|o no-|stra:|
 z4 B4 c4 c4 | (d6 c2 B8) | =A8 z4 F4 | _A4 G4 F4 E4 | %36
w: per quem sal-|va\- * *|ti, et|li- be- ra- ti|
[Q:1/4=200][Q:1/4=200][Q:1/4=200][Q:1/4=200] F8 F8- | F8 z4 c4 | A4 B4 c4 G4 | %39
w: su- mus,|* per|quem sal- va- ti,|
[Q:1/4=197] G4[Q:1/4=192] c8[Q:1/4=186] B4 |[Q:1/4=182] E4[Q:1/4=177] F8[Q:1/4=171] =E4 | %41
w: et li- be-|ra- ti su-|
[Q:1/4=170] F16 |] %42
w: mus.|
V:2
 F16 | F16 | F16 ||[M:3/1] F16 E8 | F16 G8 | z8 A8 B8 | A16 G8 || F16 | (F8 =E8) | F8 z8 | F8 F8 | %11
w: Nos|au-|tem|glo- ri-|a- ri,|glo- ri-|a- ri|o-|por\- *|tet|in cru-|
 B,4 B,6 A,2 A,4 | A,4 G,4 A,4 B,4 | C4 C4 z4 F4- | F2 E2 E4 D4 C4 | D4 F8 =E4 | F4 F4 _E4 C4 | %17
w: ce Do- mi- ni|no- stri Je- su|Chri- sti, Do\-|* mi- ni no- stri|Je- su Chri-|sti: in quo est|
 D8 C8 | z4 F4 A4 A4 | (D2 E2 F2 D2 E8) | F4 F4 E4 C4 | D8 C4 (E4- | E2 F2 G2 A2 B2 B,2 E4- | %23
w: sa- lus,|in quo est|sa\- * * * *|lus, in quo est|sa- lus, vi\-||
 E4 =D2 C2 D4) D4 ||[M:3/1] E8 =E8 F8 | G16 _E8 | E8 E16 | E16 z8 |[M:3/1] E8 F8 F8 | A16 E8 | %30
w: * * * * ta,|et re- sur-|re- cti-|o no-|stra,|et re- sur-|re- cti-|
 G8 F16 || G16 | z4 E4 =E4 F4 | F8 F8 | z4 F4 A6 G2 | F4 E4 D4 C2 B,2 | C8 D8 | z4 A4 G4 E4 | %38
w: o no-|stra:|per quem sal-|va- ti,|et li- be-|ra- ti su\- * *|* mus,|per quem sal-|
 F8 E8 | z4 C4 E4 D4 | C4 F,4 C8 | C16 |] %42
w: va- ti,|et li- be-|ra- ti su-|mus.|
V:3
 =A16 | B16 | =A16 ||[M:3/1] c16 c8 | c16 e8 | e16 e8 | e16 e8 || d4 (B6 AG F2 G2 | A8) G4 c4 | %9
w: Nos|au-|tem|glo- ri-|a- ri,|glo- ri-|a- ri|o- por\- * * * *|* tet in|
 c8 F4 f4- | f2 e2 d4 d4 c4 | d4 e4 f8 | c8 z4 f4- | f2 e2 e4 d8 | c8 F8 | B8 G8 | F8 z8 | %17
w: cru- ce Do\-|* mi- ni no- stri|Je- su Chri-|sti, Do\-|* mi- ni no-|stri Je-|su Chri-|sti:|
 z4 f4 e4 c4 | (d6 cB A2 B2 c2 A2 | B8) A8 | z4 F4 A4 A4 | (D2 E2 F2 =G2 A8) | G8 G8 | F16 || %24
w: in quo est|sa\- * * * * * *|* lus,|in quo est|sa\- * * * *|lus, vi-|ta,|
[M:3/1] G8 G8 =A8 | B12 B4 G8 | (_A16 G8) | A16 z8 |[M:3/1][K:treble-8] c8 c8 =d8 | e8 e8 c8 | %30
w: et re- sur-|re- cti- o|no\- *|stra,|et re- sur-|re- cti- o|
 B24 || G16 | G8 G4 c4 | (B6 c2 d8) | c4 c8 A4- | A2 B2 c8 B4- | B4 =A4 B4 B4 | _A4 F4 (G8 | %38
w: no-|stra:|per quem sal-|va\- * *|ti, et li\-|* be- ra- ti|* su- mus, et|li- be- ra\-|
 F8) G4 c4 | e6 d2 c4 F4 | (A6 GF G8) | F16 |] %42
w: * ti, et|li- be- ra- ti|su\- * * *|mus.|
V:4
 F,16 | B,,16 | F,16 ||[M:3/1] F,16 A,8 | F,16 E,8 | A,16 G,8 | A,16 E,8 || B,,16 | F,8 C,8 | %9
w: Nos|au-|tem|glo- ri-|a- ri,|glo- ri-|a- ri|o-|por- tet|
 F,8 F,8 | B,,4 B,6 A,2 A,4 | _G,8 F,4 F,4- | F,4 E,4 D,8 | C,8 z8 | z16 | z16 | z4 F,4 A,4 A,4 | %17
w: in cru-|ce Do- mi- ni|no- stri Je\-|* su Chri-|sti:|||in quo est|
 (D,2 E,2 F,2 =G,2 A,8) | D,8 z8 | z16 | D,8 C,4 A,,4 | B,,8 A,,8 | E,16 | B,,16 || %24
w: sa\- * * * *|lus,||in quo est|sa- lus,|vi-|ta,|
[M:3/1] E,8 C,8 F,8 | E,16 E,8 | A,,8 E,16 | A,,16 z8 |[M:3/1] A,8 F,8 B,8 | A,16 A,8 | %30
w: et re- sur-|re- cti-|o no-|stra,|et re- sur-|re- cti-|
 E,8 B,,16 || E,16 | E,8 C,4 =A,,4 | B,,16 | F,8 F,8 | D,4 E,4 F,4 _G,4 | F,8 B,,8 | F,8 E,4 C,4 | %38
w: o no-|stra:|per quem sal-|va-|ti, et|li- be- ra- ti|su- mus,|per quem sal-|
 D,8 C,8 | C,8 A,,4 B,,4 | C,4 D,4 C,8 | F,,16 |] %42
w: va- ti.|et li- be-|ra- ti su-|mus.|

